src/public/assets/favicon.svg

<svg width="16" height="16" viewBox="0 0 16 16" fill="none" xmlns="http://www.w3.org/2000/svg">
<path d="M15.9659 0.0282666C15.6964 0.00946438 15.4264 3.65122e-05 15.1563 0C9.42187 0 6.15787 4.3712 4.97067 7.88853L8.1216 11.0389C11.7408 9.744 16 6.6 16 0.928C16 0.634666 15.9888 0.335467 15.9659 0.0282666ZM8.44693 9.48L6.52587 7.5584C7.33973 5.65173 9.65333 1.59413 14.6581 1.34507C14.4901 5.19413 11.9637 7.96587 8.44693 9.48ZM12.0944 10.5056C11.7296 10.7541 11.368 10.9792 11.0096 11.1792C10.8848 11.7728 10.568 12.4075 10.1088 12.9472C10.1077 12.5632 10.0005 12.176 9.81387 11.7877C9.4832 11.9376 9.1696 12.0667 8.8704 12.1797C9.31093 13.3195 8.8624 14.1605 8.25973 14.9499C9.12373 14.8848 10.0309 14.4613 10.7451 13.7467C11.5168 12.9765 12.0571 11.8651 12.0944 10.5056ZM4.21547 6.192C3.82987 6.0064 3.4432 5.9008 3.0608 5.89867C3.59573 5.4448 4.22347 5.1296 4.8112 5.0016C5.0208 4.63307 5.256 4.26933 5.50293 3.91253C4.144 3.94987 3.03147 4.4912 2.26027 5.26187C1.5456 5.976 1.1232 6.8832 1.0576 7.74667C1.8464 7.144 2.68853 6.696 3.82773 7.13707C3.944 6.824 4.072 6.5088 4.21547 6.192ZM9.37387 6.63467C9.31182 6.57283 9.26258 6.49935 9.22899 6.41845C9.19539 6.33754 9.1781 6.2508 9.1781 6.1632C9.1781 6.0756 9.19539 5.98886 9.22899 5.90795C9.26258 5.82705 9.31182 5.75357 9.37387 5.69173C9.46708 5.59844 9.58587 5.53489 9.7152 5.50912C9.84454 5.48335 9.97861 5.49652 10.1005 5.54696C10.2223 5.5974 10.3265 5.68285 10.3997 5.79249C10.473 5.90214 10.5121 6.03105 10.5121 6.16293C10.5121 6.29481 10.473 6.42373 10.3997 6.53337C10.3265 6.64302 10.2223 6.72847 10.1005 6.77891C9.97861 6.82935 9.84454 6.84252 9.7152 6.81675C9.58587 6.79098 9.46708 6.72796 9.37387 6.63467ZM12.6731 3.3344C12.5491 3.21061 12.402 3.11244 12.2402 3.04549C12.0783 2.97855 11.9048 2.94415 11.7296 2.94425C11.5545 2.94435 11.381 2.97895 11.2192 3.04607C11.0575 3.1132 10.9105 3.21153 10.7867 3.33547C10.6629 3.4594 10.5647 3.6065 10.4978 3.76837C10.4308 3.93025 10.3964 4.10372 10.3965 4.27889C10.3966 4.45406 10.4312 4.62749 10.4983 4.78929C10.5655 4.95108 10.6638 5.09807 10.7877 5.22187C11.038 5.47188 11.3774 5.61222 11.7312 5.61202C12.0849 5.61182 12.4241 5.47109 12.6741 5.2208C12.9241 4.97051 13.0645 4.63115 13.0643 4.27738C13.0641 3.92361 12.9234 3.58441 12.6731 3.3344ZM11.4 4.608C11.3547 4.56515 11.3185 4.51367 11.2935 4.45659C11.2684 4.39952 11.2551 4.33801 11.2542 4.27568C11.2533 4.21336 11.2649 4.1515 11.2884 4.09374C11.3118 4.03598 11.3465 3.9835 11.3906 3.93939C11.4346 3.89529 11.487 3.86045 11.5448 3.83693C11.6025 3.81342 11.6643 3.8017 11.7266 3.80248C11.789 3.80326 11.8505 3.81651 11.9076 3.84146C11.9647 3.86641 12.0163 3.90254 12.0592 3.94773C12.143 4.03592 12.189 4.15332 12.1875 4.27493C12.1859 4.39654 12.137 4.51276 12.0511 4.59883C11.9652 4.6849 11.849 4.73402 11.7274 4.73573C11.6058 4.73744 11.4883 4.69161 11.4 4.608ZM1.31307 13.0517L0.7088 12.448L4.18133 8.98933L4.7856 9.5936L1.31307 13.0517ZM4.63147 14.2896L4.02667 13.6853L6.45067 11.2427L7.05547 11.8464L4.63147 14.2896ZM0.604267 16L0 15.3957L4.29867 11.1051L4.90293 11.7088L0.604267 16Z" fill="#6348B7"/>
</svg>

<svg width="16" height="16" fill="none" xmlns="http://www.w3.org/2000/svg"><path d="M15.966.028c-.27-.019-.54-.028-.81-.028C9.422 0 6.158 4.371 4.971 7.889l3.15 3.15C11.742 9.744 16 6.6 16 .928c0-.293-.011-.593-.034-.9ZM8.446 9.48l-1.92-1.922c.814-1.906 3.127-5.964 8.132-6.213-.168 3.85-2.694 6.62-6.211 8.135Zm3.648 1.026a14.37 14.37 0 0 1-1.084.673c-.125.594-.442 1.229-.901 1.768-.001-.384-.108-.771-.295-1.16-.33.15-.644.28-.944.393.44 1.14-.008 1.98-.61 2.77.864-.065 1.77-.489 2.485-1.203.772-.77 1.312-1.882 1.35-3.241ZM4.215 6.192c-.385-.186-.772-.291-1.154-.293.535-.454 1.162-.77 1.75-.897.21-.369.445-.733.692-1.09-1.359.038-2.472.58-3.243 1.35-.714.714-1.137 1.621-1.202 2.485.788-.603 1.63-1.051 2.77-.61.116-.313.244-.628.387-.945Zm5.159.443a.666.666 0 0 1 .726-1.088.666.666 0 1 1-.726 1.088Zm3.3-3.3a1.336 1.336 0 0 0-2.176.433 1.333 1.333 0 1 0 2.175-.434ZM11.4 4.607a.465.465 0 0 1 .327-.806.466.466 0 1 1-.327.806ZM1.313 13.052l-.604-.604L4.18 8.989l.605.605-3.473 3.458Zm3.318 1.238-.604-.605 2.424-2.442.604.603-2.424 2.444ZM.604 16 0 15.396l4.299-4.29.604.603L.604 16Z" fill="#6348B7"/></svg>
